apps/web/public/lut/talentum-archive.cube
# Talentum · Arquivo — LUT padrão de imagem do projeto
# Gerado por scripts/gerar-lut.mjs. Não editar à mão.
# Equivalentes na web: classe .lp-lut e filtro SVG #lut-talentum.
TITLE "Talentum Arquivo"
LUT_3D_SIZE 17
DOMAIN_MIN 0.0 0.0 0.0
DOMAIN_MAX 1.0 1.0 1.0
0.008667 0.005667 0.003333
0.040803 0.005502 0.003237
0.097920 0.005341 0.003142
0.155209 0.005182 0.003048
0.212953 0.005025 0.002956
0.271153 0.004871 0.002865
0.329718 0.004720 0.002776
0.388516 0.004571 0.002689
0.447392 0.004425 0.002603
0.506180 0.004282 0.002519
0.564710 0.004141 0.002436
0.622805 0.004003 0.002355
0.680288 0.003867 0.002275
0.736979 0.003734 0.002196
0.792700 0.003603 0.002119
0.847269 0.003475 0.002044
0.900509 0.003349 0.001970
0.007837 0.034620 0.003014
0.045781 0.036057 0.002923
0.103377 0.037506 0.002833
0.161179 0.038966 0.002744
0.219427 0.040437 0.002658
0.278110 0.041919 0.002572
0.337130 0.043412 0.002488
0.396348 0.044916 0.002406
0.455609 0.046430 0.002325
0.514746 0.047956 0.002246
0.573584 0.049492 0.002168
0.631948 0.051039 0.002092
0.689658 0.052596 0.002017
0.746535 0.054163 0.001944
0.802398 0.055740 0.001872
0.857069 0.057328 0.001801
0.910367 0.058925 0.001732
0.007053 0.092543 0.002713
0.050914 0.094169 0.002626
0.108968 0.095805 0.002542
0.167256 0.097449 0.002458
0.225979 0.099101 0.002377
0.285112 0.100762 0.002296
0.344551 0.102431 0.002217
0.404156 0.104109 0.002140
0.463767 0.105795 0.002064
0.523215 0.107488 0.001990
0.582326 0.109190 0.001917
0.640922 0.110899 0.001846
0.698823 0.112615 0.001776
0.755849 0.114339 0.001708
0.811821 0.116071 0.001641
0.866558 0.117809 0.001575
0.919881 0.119554 0.001511
0.006314 0.152547 0.002428
0.056205 0.154348 0.002347
0.114696 0.156154 0.002267
0.173441 0.157966 0.002189
0.232607 0.159784 0.002112
0.292157 0.161607 0.002037
0.351981 0.163435 0.001963
0.411936 0.165269 0.001891
0.471861 0.167108 0.001820
0.531584 0.168951 0.001751
0.590930 0.170799 0.001683
0.649721 0.172652 0.001617
0.707777 0.174509 0.001552
0.764917 0.176370 0.001488
0.820961 0.178235 0.001925
0.875730 0.180105 0.003186
0.929044 0.181977 0.004458
0.005619 0.214461 0.002161
0.061659 0.216414 0.002085
0.120562 0.218370 0.002010
0.179733 0.220329 0.001937
0.239308 0.222290 0.001865
0.299241 0.224254 0.001795
0.359415 0.226219 0.001726
0.419684 0.228186 0.001659
0.479885 0.230155 0.001593
0.539847 0.232126 0.001529
0.599391 0.234098 0.001466
0.658340 0.236071 0.002383
0.716513 0.238045 0.003648
0.773731 0.240020 0.004923
0.829812 0.241996 0.006209
0.884578 0.243972 0.007505
0.937851 0.245948 0.008810
0.007496 0.278010 0.001911
0.067275 0.280093 0.001839
0.126565 0.282175 0.001770
0.186130 0.284256 0.001702
0.246081 0.286337 0.001635
0.306360 0.288416 0.001569
0.366848 0.290494 0.001506
0.427395 0.292570 0.001584
0.487836 0.294645 0.002842
0.547997 0.296717 0.004111
0.607703 0.298788 0.005390
0.666773 0.300856 0.006679
0.725026 0.302922 0.007979
0.782284 0.304985 0.009288
0.838367 0.307046 0.010607
0.893096 0.309103 0.011935
0.946295 0.311158 0.013272
0.013040 0.342881 0.001677
0.073052 0.345068 0.001611
0.132701 0.347251 0.001546
0.192629 0.349429 0.001483
0.252921 0.351603 0.002041
0.313512 0.353772 0.003303
0.374277 0.355936 0.004575
0.435063 0.358095 0.005858
0.495706 0.360249 0.007151
0.556030 0.362398 0.008454
0.615859 0.364541 0.009767
0.675012 0.366678 0.011089
0.733310 0.368809 0.012420
0.790573 0.370934 0.013761
0.846622 0.373052 0.015110
0.901280 0.375164 0.016468
0.954372 0.377269 0.017834
0.018746 0.408739 0.001460
0.078990 0.411003 0.002499
0.138969 0.413260 0.003765
0.199226 0.415508 0.005041
0.259824 0.417749 0.006328
0.320690 0.419981 0.007625
0.381695 0.422204 0.008931
0.442684 0.424419 0.010247
0.503490 0.426625 0.011573
0.563939 0.428823 0.012907
0.623853 0.431011 0.014251
0.683052 0.433189 0.015603
0.741358 0.435358 0.016964
0.798590 0.437517 0.018333
0.854571 0.439667 0.019710
0.909125 0.441806 0.021095
0.962078 0.443935 0.022488
0.024618 0.475237 0.005509
0.085084 0.477550 0.006799
0.145364 0.479853 0.008099
0.205917 0.482144 0.009409
0.266786 0.484424 0.010729
0.327890 0.486691 0.012057
0.389097 0.488947 0.013395
0.450251 0.491190 0.014742
0.511183 0.493421 0.016098
0.571719 0.495639 0.017461
0.631680 0.497844 0.018833
0.690888 0.500037 0.020214
0.749164 0.502216 0.021601
0.806330 0.504382 0.022997
0.862209 0.506535 0.024400
0.916626 0.508674 0.025810
0.969409 0.510799 0.027227
0.030658 0.542018 0.009888
0.091333 0.544354 0.011211
0.151883 0.546675 0.012544
0.212697 0.548980 0.013885
0.273801 0.551271 0.015235
0.335106 0.553546 0.016593
0.396478 0.555806 0.017960
0.457758 0.558050 0.019335
0.518778 0.560277 0.020718
0.579363 0.562489 0.022109
0.639334 0.564684 0.023507
0.698514 0.566863 0.024912
0.756725 0.569026 0.026325
0.813789 0.571171 0.027745
0.869532 0.573300 0.029171
0.923779 0.575411 0.030604
0.976361 0.577506 0.032043
0.036866 0.608723 0.014375
0.097733 0.611053 0.015728
0.158521 0.613365 0.017090
0.219562 0.615658 0.018460
0.280863 0.617932 0.019838
0.342333 0.620187 0.021223
0.403831 0.622423 0.022617
0.465200 0.624640 0.024018
0.526270 0.626838 0.025426
0.586865 0.629015 0.026841
0.646809 0.631174 0.028263
0.705924 0.633312 0.029692
0.764034 0.635430 0.031127
0.820962 0.637528 0.032569
0.876535 0.639606 0.034017
0.930582 0.641664 0.035470
0.982934 0.643701 0.036929
0.043241 0.674994 0.018960
0.104278 0.677290 0.020341
0.165273 0.679565 0.021730
0.226505 0.681818 0.023126
0.287968 0.684048 0.024530
0.349564 0.686256 0.025940
0.411152 0.688442 0.027358
0.472571 0.690605 0.028783
0.533652 0.692745 0.030214
0.594220 0.694863 0.031652
0.654100 0.696957 0.033095
0.713114 0.699029 0.034545
0.771087 0.701077 0.036001
0.827846 0.703102 0.037462
0.883217 0.705103 0.038929
0.937033 0.707081 0.040401
0.989125 0.709036 0.041878
0.049781 0.740471 0.023636
0.110965 0.742707 0.025042
0.172134 0.744918 0.026456
0.233521 0.747104 0.027876
0.295110 0.749265 0.029303
0.356794 0.751400 0.030737
0.418433 0.753509 0.032176
0.479864 0.755592 0.033622
0.540919 0.757650 0.035074
0.601423 0.759681 0.036532
0.661202 0.761687 0.037996
0.720080 0.763667 0.039464
0.777882 0.765620 0.040938
0.834437 0.767547 0.042417
0.889576 0.769448 0.043901
0.943130 0.771322 0.045389
0.994935 0.773171 0.046882
0.056482 0.804802 0.028395
0.117789 0.806952 0.029824
0.179098 0.809074 0.031260
0.240605 0.811168 0.032702
0.302281 0.813233 0.034150
0.364017 0.815270 0.035605
0.425669 0.817278 0.037064
0.487075 0.819258 0.038530
0.548066 0.821208 0.040000
0.608469 0.823130 0.041476
0.668111 0.825023 0.042957
0.726817 0.826888 0.044442
0.784415 0.828723 0.045932
0.840735 0.830530 0.047427
0.895609 0.832307 0.048925
0.948874 0.834056 0.050428
0.997631 0.835776 0.051935
0.063339 0.867641 0.033229
0.124742 0.869681 0.034679
0.186159 0.871690 0.036135
0.247750 0.873668 0.037597
0.309477 0.875615 0.039064
0.371227 0.877530 0.040537
0.432854 0.879414 0.042015
0.494197 0.881267 0.043497
0.555088 0.883088 0.044984
0.615354 0.884878 0.046476
0.674823 0.886637 0.047972
0.733323 0.888365 0.049472
0.790684 0.890062 0.050976
0.846738 0.891727 0.052484
0.901319 0.893362 0.053996
0.954266 0.894965 0.055511
0.998616 0.896538 0.057029
0.070350 0.928653 0.038131
0.131821 0.930560 0.039600
0.193311 0.932434 0.041074
0.254950 0.934274 0.042554
0.316691 0.936080 0.044038
0.378418 0.937853 0.045527
0.439983 0.939592 0.047020
0.501227 0.941298 0.048518
0.561981 0.942970 0.050019
0.622074 0.944609 0.051525
0.681336 0.946215 0.053034
0.739597 0.947787 0.054547
0.796689 0.949326 0.056063
0.852447 0.950833 0.057583
0.906707 0.952307 0.059105
0.959312 0.953749 0.060631
0.999321 0.955158 0.062159
0.077508 0.987514 0.043093
0.139019 0.989268 0.044579
0.200547 0.990986 0.046070
0.262199 0.992669 0.047565
0.323918 0.994316 0.049064
0.385584 0.995928 0.050567
0.447051 0.997504 0.052074
0.508159 0.997903 0.053584
0.568740 0.998209 0.055099
0.628626 0.998489 0.056616
0.687648 0.998744 0.058137
0.745638 0.998973 0.059660
0.802432 0.999177 0.061187
0.857865 0.999357 0.062716
0.911779 0.999513 0.064248
0.964018 0.999645 0.065782
0.999765 0.999756 0.067318
0.008581 0.005611 0.017093
0.041298 0.005447 0.018313
0.098465 0.005286 0.019545
0.155807 0.005128 0.020788
0.213603 0.004973 0.022042
0.271853 0.004820 0.023307
0.330466 0.004669 0.024582
0.389308 0.004522 0.025868
0.448224 0.004376 0.027164
0.507049 0.004234 0.028470
0.565612 0.004094 0.029786
0.623736 0.003956 0.031112
0.681243 0.003821 0.032448
0.737955 0.003689 0.033793
0.793691 0.003559 0.035148
0.848272 0.003432 0.036511
0.901519 0.003307 0.037884
0.007756 0.035107 0.021243
0.046292 0.036548 0.022501
0.103935 0.038000 0.023770
0.161788 0.039464 0.025049
0.220085 0.040939 0.026339
0.278815 0.042424 0.027638
0.337878 0.043921 0.028948
0.397137 0.045429 0.030268
0.456435 0.046947 0.031598
0.515605 0.048476 0.032937
0.574473 0.050016 0.034285
0.632861 0.051566 0.035643
0.690593 0.053127 0.037010
0.747486 0.054697 0.038386
0.803362 0.056278 0.039770
0.858041 0.057869 0.041163
0.911344 0.059470 0.042565
0.006976 0.093094 0.025517
0.051441 0.094724 0.026811
0.109540 0.096362 0.028114
0.167876 0.098009 0.029428
0.226645 0.099664 0.030751
0.285821 0.101328 0.032084
0.345301 0.103000 0.033427
0.404943 0.104680 0.034779
0.464587 0.106369 0.036140
0.524065 0.108065 0.037510
0.583201 0.109769 0.038889
0.641818 0.111481 0.040276
0.699737 0.113200 0.041672
0.756776 0.114926 0.043077
0.812757 0.116660 0.044489
0.867498 0.118401 0.045910
0.920822 0.120148 0.047338
0.006241 0.153158 0.029908
0.056749 0.154961 0.031235
0.115282 0.156769 0.032572
0.174072 0.158583 0.033918
0.233280 0.160402 0.035273
0.292870 0.162227 0.036638
0.352731 0.164057 0.038011
0.412720 0.165893 0.039393
0.472674 0.167733 0.040784
0.532423 0.169578 0.042183
0.591791 0.171428 0.043590
0.650600 0.173282 0.045006
0.708669 0.175140 0.046429
0.765818 0.177003 0.047860
0.821868 0.178870 0.049298
0.876638 0.180740 0.050744
0.929950 0.182614 0.052197
0.005551 0.215124 0.034410
0.062219 0.217078 0.035769
0.121162 0.219035 0.037136
0.180375 0.220995 0.038513
0.239989 0.222957 0.039898
0.299958 0.224921 0.041292
0.360165 0.226887 0.042694
0.420464 0.228855 0.044105
0.480691 0.230824 0.045523
0.540675 0.232795 0.046949
0.600237 0.234768 0.048383
0.659200 0.236741 0.049824
0.717383 0.238716 0.051273
0.774606 0.240691 0.052728
0.830689 0.242667 0.054191
0.885453 0.244643 0.055660
0.938720 0.246620 0.057136
0.008048 0.278717 0.039016
0.067851 0.280800 0.040405
0.127178 0.282882 0.041802
0.186782 0.284963 0.043207
0.246769 0.287043 0.044620
0.307081 0.289122 0.046041
0.367598 0.291199 0.047470
0.428171 0.293275 0.048907
0.488634 0.295349 0.050351
0.548814 0.297421 0.051802
0.608533 0.299491 0.053260
0.667613 0.301558 0.054725
0.725873 0.303623 0.056197
0.783133 0.305685 0.057675
0.839214 0.307745 0.059159
0.893938 0.309801 0.060650
0.947127 0.311854 0.062147
0.013609 0.343624 0.043720
0.073644 0.345810 0.045136
0.133328 0.347991 0.046561
0.193291 0.350168 0.047992
0.253615 0.352340 0.049431
0.314235 0.354507 0.050878
0.375026 0.356670 0.052332
0.435835 0.358827 0.053792
0.496496 0.360979 0.055260
0.556834 0.363126 0.056734
0.616673 0.365267 0.058215
0.675833 0.367402 0.059702
0.734133 0.369531 0.061194
0.791394 0.371654 0.062693
0.847439 0.373770 0.064198
0.902088 0.375880 0.065708
0.955167 0.377983 0.067223
0.019331 0.409509 0.048515
0.079598 0.411770 0.049957
0.139609 0.414024 0.051406
0.199897 0.416270 0.052863
0.260525 0.418507 0.054326
0.321416 0.420737 0.055796
0.382443 0.422957 0.057272
0.443450 0.425170 0.058755
0.504271 0.427373 0.060244
0.564731 0.429567 0.061739
0.624651 0.431751 0.063240
0.683853 0.433927 0.064747
0.742157 0.436093 0.066259
0.799384 0.438248 0.067777
0.855356 0.440394 0.069299
0.909898 0.442530 0.070827
0.962835 0.444655 0.072359
0.025220 0.476024 0.053395
0.085708 0.478334 0.054860
0.146017 0.480632 0.056333
0.206597 0.482920 0.057812
0.267492 0.485195 0.059297
0.328618 0.487458 0.060788
0.389843 0.489710 0.062285
0.451011 0.491949 0.063788
0.511954 0.494175 0.065297
0.572497 0.496389 0.066811
0.632461 0.498590 0.068330
0.691668 0.500778 0.069855
0.749939 0.502953 0.071384
0.807096 0.505115 0.072918
0.862962 0.507263 0.074456
0.917364 0.509397 0.075999
0.970128 0.511517 0.077546
0.031277 0.542813 0.058351
0.091973 0.545143 0.059839
0.152548 0.547459 0.061332
0.213386 0.549760 0.062832
0.274512 0.552046 0.064337
0.335835 0.554315 0.065847
0.397221 0.556570 0.067363
0.458512 0.558808 0.068885
0.519539 0.561030 0.070411
0.580126 0.563236 0.071942
0.640097 0.565426 0.073477
0.699272 0.567599 0.075017
0.757474 0.569756 0.076562
0.814526 0.571896 0.078110
0.870253 0.574019 0.079663
0.924482 0.576124 0.081219
0.977042 0.578213 0.082779
0.037502 0.609517 0.063379
0.098387 0.611841 0.064886
0.159198 0.614146 0.066399
0.220259 0.616432 0.067917
0.281579 0.618700 0.069440
0.343063 0.620949 0.070968
0.404572 0.623178 0.072500
0.465947 0.625389 0.074038
0.527020 0.627579 0.075579
0.587614 0.629751 0.077125
0.647553 0.631902 0.078675
0.706660 0.634033 0.080229
0.764758 0.636145 0.081786
0.821670 0.638236 0.083347
0.877225 0.640307 0.084912
0.931250 0.642358 0.086479
0.983576 0.644388 0.088050
0.043894 0.675776 0.068471
0.104947 0.678065 0.069995
0.165961 0.680333 0.071525
0.227210 0.682578 0.073059
0.288688 0.684801 0.074598
0.350294 0.687001 0.076142
0.411888 0.689179 0.077689
0.473311 0.691334 0.079240
0.534391 0.693467 0.080795
0.594954 0.695577 0.082354
0.654825 0.697663 0.083917
0.713828 0.699727 0.085482
0.771785 0.701767 0.087051
0.828525 0.703784 0.088622
0.883874 0.705778 0.090197
0.937664 0.707748 0.091774
0.989729 0.709694 0.093353
0.050450 0.741233 0.073619
0.111648 0.743461 0.075160
0.172833 0.745664 0.076704
0.234234 0.747841 0.078253
0.295832 0.749993 0.079806
0.357524 0.752119 0.081363
0.419165 0.754219 0.082923
0.480596 0.756294 0.084486
0.541646 0.758343 0.086053
0.602142 0.760366 0.087623
0.661908 0.762362 0.089195
0.720770 0.764333 0.090770
0.778554 0.766277 0.092348
0.835087 0.768196 0.093929
0.890200 0.770087 0.095511
0.943726 0.771953 0.097095
0.995501 0.773792 0.098682
0.057167 0.805535 0.078818
0.118485 0.807676 0.080372
0.179806 0.809789 0.081930
0.241324 0.811873 0.083491
0.303007 0.813928 0.085056
0.364746 0.815955 0.086624
0.426397 0.817954 0.088195
0.487798 0.819923 0.089768
0.548781 0.821864 0.091345
0.609172 0.823776 0.092923
0.668797 0.825660 0.094504
0.727484 0.827514 0.096088
0.785060 0.829340 0.097673
0.841354 0.831137 0.099260
0.896201 0.832905 0.100848
0.949434 0.834644 0.102438
0.997743 0.836354 0.104030
0.064040 0.868338 0.084061
0.125452 0.870367 0.085627
0.186877 0.872365 0.087195
0.248475 0.874333 0.088767
0.310205 0.876269 0.090342
0.371954 0.878173 0.091919
0.433577 0.880047 0.093499
0.494911 0.881889 0.095081
0.555790 0.883700 0.096664
0.616040 0.885479 0.098250
0.675490 0.887228 0.099838
0.733967 0.888945 0.101427
0.791302 0.890631 0.103018
0.847327 0.892286 0.104609
0.901878 0.893910 0.106202
0.954791 0.895503 0.107796
0.998699 0.897065 0.109391
0.071066 0.929304 0.089340
0.132543 0.931200 0.090916
0.194037 0.933062 0.092494
0.255680 0.934891 0.094074
0.317420 0.936686 0.095657
0.379143 0.938447 0.097242
0.440700 0.940175 0.098828
0.501931 0.941869 0.100416
0.562669 0.943530 0.102006
0.622743 0.945158 0.103597
0.681982 0.946752 0.105189
0.740217 0.948313 0.106783
0.797281 0.949842 0.108377
0.853007 0.951337 0.109972
0.907233 0.952800 0.111568
0.959802 0.954231 0.113164
0.999377 0.955630 0.114761
0.078238 0.988113 0.094650
0.139752 0.989856 0.096234
0.201282 0.991562 0.097819
0.262933 0.993233 0.099406
0.324648 0.994868 0.100995
0.386306 0.996467 0.102585
0.447761 0.997686 0.104177
0.508853 0.998010 0.105769
0.569415 0.998307 0.107363
0.629278 0.998579 0.108958
0.688274 0.998824 0.110553
0.746236 0.999045 0.112149
0.802997 0.999241 0.113745
0.858396 0.999413 0.115342
0.912274 0.999560 0.116939
0.964475 0.999685 0.118536
0.999796 0.999788 0.120133
0.008496 0.005555 0.063235
0.041796 0.005392 0.064673
0.099012 0.005232 0.066119
0.156406 0.005075 0.067574
0.214254 0.004920 0.069037
0.272554 0.004768 0.070508
0.331214 0.004619 0.071987
0.390099 0.004472 0.073475
0.449055 0.004328 0.074970
0.507917 0.004186 0.076472
0.566512 0.004047 0.077982
0.624665 0.003910 0.079499
0.682196 0.003776 0.081023
0.738928 0.003645 0.082554
0.794680 0.003516 0.084092
0.849272 0.003389 0.085636
0.902527 0.003265 0.087187
0.007675 0.035595 0.068105
0.046805 0.037040 0.069572
0.104495 0.038496 0.071046
0.162397 0.039963 0.072528
0.220744 0.041442 0.074018
0.279521 0.042931 0.075516
0.338627 0.044432 0.077021
0.397926 0.045943 0.078533
0.457261 0.047465 0.080053
0.516463 0.048998 0.081580
0.575360 0.050541 0.083113
0.633773 0.052095 0.084653
0.691525 0.053659 0.086200
0.748435 0.055233 0.087753
0.804323 0.056817 0.089312
0.859010 0.058412 0.090877
0.912316 0.060015 0.092448
0.006900 0.093647 0.073070
0.051969 0.095279 0.074562
0.110114 0.096920 0.076063
0.168496 0.098570 0.077571
0.227311 0.100228 0.079086
0.286531 0.101895 0.080608
0.346051 0.103570 0.082137
0.405729 0.105253 0.083673
0.465406 0.106944 0.085216
0.524913 0.108643 0.086765
0.584075 0.110350 0.088320
0.642713 0.112064 0.089881
0.700648 0.113786 0.091449
0.757700 0.115514 0.093022
0.813689 0.117251 0.094600
0.868436 0.118994 0.096184
0.921760 0.120743 0.097773
0.006170 0.153770 0.078121
0.057293 0.155574 0.079639
0.115870 0.157384 0.081164
0.174703 0.159200 0.082696
0.233954 0.161021 0.084234
0.293584 0.162848 0.085779
0.353482 0.164680 0.087330
0.413503 0.166517 0.088888
0.473487 0.168359 0.090451
0.533261 0.170206 0.092021
0.592650 0.172057 0.093596
0.651476 0.173913 0.095176
0.709559 0.175773 0.096762
0.766717 0.177637 0.098353
0.822771 0.179505 0.099949
0.877542 0.181376 0.101550
0.930851 0.183251 0.103155
0.005484 0.215787 0.083255
0.062780 0.217743 0.084796
0.121763 0.219701 0.086343
0.181017 0.221661 0.087897
0.240670 0.223624 0.089456
0.300675 0.225588 0.091022
0.360916 0.227555 0.092593
0.421244 0.229524 0.094170
0.481497 0.231494 0.095753
0.541501 0.233465 0.097341
0.601082 0.235438 0.098934
0.660058 0.237412 0.100531
0.718250 0.239386 0.102134
0.775479 0.241362 0.103741
0.831563 0.243338 0.105352
0.886324 0.245314 0.106968
0.939585 0.247291 0.108587
0.008603 0.279425 0.088464
0.068428 0.281507 0.090026
0.127793 0.283589 0.091593
0.187434 0.285669 0.093167
0.247457 0.287749 0.094746
0.307802 0.289827 0.096330
0.368349 0.291904 0.097920
0.428947 0.293979 0.099515
0.489431 0.296053 0.101114
0.549629 0.298124 0.102718
0.609362 0.300193 0.104327
0.668452 0.302260 0.105940
0.726718 0.304324 0.107557
0.783979 0.306385 0.109178
0.840058 0.308444 0.110803
0.894776 0.310499 0.112431
0.947955 0.312551 0.114063
0.014179 0.344367 0.093741
0.074238 0.346551 0.095322
0.133956 0.348731 0.096909
0.193953 0.350906 0.098500
0.254310 0.353076 0.100096
0.314959 0.355242 0.101698
0.375775 0.357403 0.103303
0.436606 0.359559 0.104914
0.497285 0.361709 0.106528
0.557637 0.363854 0.108147
0.617486 0.365993 0.109769
0.676652 0.368126 0.111395
0.734954 0.370253 0.113025
0.792213 0.372373 0.114658
0.848252 0.374487 0.116294
0.902892 0.376595 0.117933
0.955958 0.378695 0.119575
0.019918 0.410278 0.099081
0.080207 0.412537 0.100679
0.140250 0.414788 0.102282
0.200569 0.417031 0.103889
0.261225 0.419265 0.105501
0.322142 0.421492 0.107117
0.383191 0.423710 0.108737
0.444216 0.425919 0.110361
0.505051 0.428119 0.111988
0.565521 0.430310 0.113619
0.625447 0.432491 0.115253
0.684651 0.434663 0.116890
0.742953 0.436826 0.118531
0.800175 0.438978 0.120174
0.856138 0.441121 0.121819
0.910667 0.443253 0.123467
0.963588 0.445375 0.125117
0.025824 0.476809 0.104475
0.086334 0.479116 0.106089
0.146670 0.481410 0.107706
0.207279 0.483694 0.109328
0.268198 0.485965 0.110953
0.329346 0.488224 0.112581
0.390589 0.490472 0.114214
0.451772 0.492706 0.115849
0.512725 0.494929 0.117487
0.573273 0.497138 0.119129
0.633240 0.499335 0.120772
0.692445 0.501518 0.122419
0.750711 0.503689 0.124068
0.807859 0.505846 0.125719
0.863713 0.507989 0.127372
0.918098 0.510119 0.129026
0.970843 0.512234 0.130683
0.031898 0.543606 0.109919
0.092613 0.545932 0.111545
0.153214 0.548242 0.113175
0.214076 0.550538 0.114809
0.275223 0.552818 0.116445
0.336564 0.555083 0.118084
0.397965 0.557332 0.119727
0.459266 0.559564 0.121372
0.520299 0.561781 0.123019
0.580889 0.563982 0.124669
0.640858 0.566166 0.126320
0.700028 0.568334 0.127974
0.758221 0.570485 0.129629
0.815260 0.572619 0.131286
0.870971 0.574736 0.132945
0.925181 0.576836 0.134604
0.977719 0.578918 0.136265
0.038140 0.610308 0.115404
0.099043 0.612625 0.117042
0.159875 0.614924 0.118682
0.220957 0.617205 0.120325
0.282295 0.619466 0.121971
0.343793 0.621708 0.123619
0.405312 0.623931 0.125270
0.466694 0.626135 0.126922
0.527769 0.628319 0.128576
0.588362 0.630483 0.130232
0.648296 0.632628 0.131890
0.707394 0.634753 0.133549
0.765479 0.636857 0.135209
0.822375 0.638942 0.136870
0.877911 0.641006 0.138532
0.931913 0.643049 0.140194
0.984215 0.645072 0.141857
0.044549 0.676556 0.120924
0.105617 0.678838 0.122571
0.166650 0.681098 0.124220
0.227916 0.683335 0.125871
0.289408 0.685550 0.127524
0.351024 0.687743 0.129179
0.412625 0.689914 0.130836
0.474050 0.692061 0.132494
0.535128 0.694186 0.134153
0.595687 0.696288 0.135813
0.655549 0.698367 0.137475
0.714539 0.700422 0.139137
0.772480 0.702455 0.140799
0.829200 0.704464 0.142463
0.884527 0.706449 0.144126
0.938292 0.708411 0.145789
0.990329 0.710350 0.147453
0.051121 0.741993 0.126473
0.112332 0.744212 0.128126
0.173532 0.746406 0.129782
0.234946 0.748575 0.131439
0.296555 0.750718 0.133098
0.358253 0.752835 0.134757
0.419897 0.754927 0.136418
0.481327 0.756993 0.138080
0.542372 0.759033 0.139742
0.602859 0.761047 0.141405
0.662613 0.763034 0.143068
0.721458 0.764996 0.144732
0.779222 0.766932 0.146395
0.835733 0.768841 0.148058
0.890820 0.770724 0.149722
0.944318 0.772581 0.151384
0.996062 0.774411 0.153046
0.057854 0.806266 0.132043
0.119182 0.808397 0.133702
0.180516 0.810500 0.135362
0.242043 0.812574 0.137023
0.303732 0.814620 0.138685
0.365474 0.816637 0.140347
0.427124 0.818626 0.142010
0.488520 0.820586 0.143674
0.549494 0.822517 0.145337
0.609873 0.824419 0.147001
0.669482 0.826293 0.148664
0.728149 0.828137 0.150327
0.785702 0.829953 0.151990
0.841971 0.831740 0.153651
0.896788 0.833498 0.155313
0.949991 0.835228 0.156973
0.997853 0.836928 0.158632
0.064743 0.869030 0.137628
0.126162 0.871049 0.139290
0.187596 0.873037 0.140953
0.249200 0.874994 0.142616
0.310932 0.876919 0.144279
0.372681 0.878813 0.145943
0.434298 0.880676 0.147606
0.495624 0.882507 0.149269
0.556490 0.884307 0.150932
0.616724 0.886076 0.152595
0.676154 0.887814 0.154256
0.734609 0.889521 0.155917
0.791918 0.891196 0.157577
0.847914 0.892841 0.159236
0.902433 0.894454 0.160893
0.955313 0.896037 0.162549
0.998780 0.897589 0.164203
0.071783 0.929952 0.143221
0.133265 0.931836 0.144885
0.194765 0.933687 0.146548
0.256410 0.935504 0.148212
0.318150 0.937288 0.149875
0.379867 0.939038 0.151538
0.441416 0.940754 0.153200
0.502634 0.942437 0.154861
0.563356 0.944087 0.156521
0.623410 0.945703 0.158181
0.682627 0.947286 0.159839
0.740835 0.948836 0.161496
0.797869 0.950353 0.163152
0.853564 0.951838 0.164805
0.907757 0.953290 0.166458
0.960289 0.954710 0.168108
0.999431 0.956097 0.169757
0.078970 0.988709 0.148817
0.140486 0.990439 0.150480
0.202018 0.992133 0.152143
0.263668 0.993792 0.153805
0.325378 0.995415 0.155466
0.387028 0.997002 0.157126
0.448471 0.997799 0.158785
0.509546 0.998114 0.160442
0.570089 0.998402 0.162099
0.629929 0.998665 0.163754
0.688898 0.998902 0.165407
0.746830 0.999114 0.167059
0.803560 0.999302 0.168709
0.858924 0.999465 0.170356
0.912766 0.999605 0.172002
0.964929 0.999723 0.173646
0.999825 0.999818 0.175287
0.008411 0.005499 0.112243
0.042295 0.005338 0.113881
0.099559 0.005179 0.115525
0.157006 0.005022 0.117175
0.214905 0.004868 0.118832
0.273255 0.004717 0.120494
0.331962 0.004569 0.122162
0.390890 0.004423 0.123835
0.449886 0.004279 0.125514
0.508784 0.004138 0.127198
0.567411 0.004000 0.128887
0.625592 0.003864 0.130580
