apps/web/public/lut/talentum-archive.cube
# Talentum · Arquivo — LUT padrão de imagem do projeto
# Gerado por scripts/gerar-lut.mjs. Não editar à mão.
# Equivalentes na web: classe .lp-lut e filtro SVG #lut-talentum.
TITLE "Talentum Arquivo"
LUT_3D_SIZE 5
DOMAIN_MIN 0.0 0.0 0.0
DOMAIN_MAX 1.0 1.0 1.0
0.008667 0.005667 0.003333
0.212953 0.005025 0.002956
0.447392 0.004425 0.002603
0.680288 0.003867 0.002275
0.900509 0.003349 0.001970
0.005619 0.214461 0.002161
0.239308 0.222290 0.001865
0.479885 0.230155 0.001593
0.716513 0.238045 0.003648
0.937851 0.245948 0.008810
0.024618 0.475237 0.005509
0.266786 0.484424 0.010729
0.511183 0.493421 0.016098
0.749164 0.502216 0.021601
0.969409 0.510799 0.027227
0.049781 0.740471 0.023636
0.295110 0.749265 0.029303
0.540919 0.757650 0.035074
0.777882 0.765620 0.040938
0.994935 0.773171 0.046882
0.077508 0.987514 0.043093
0.323918 0.994316 0.049064
0.568740 0.998209 0.055099
0.802432 0.999177 0.061187
0.999765 0.999756 0.067318
0.008326 0.005444 0.163544
0.215558 0.004817 0.170887
0.450717 0.004231 0.178285
0.684096 0.003687 0.185727
0.904531 0.003183 0.193201
0.005351 0.217115 0.188445
0.242035 0.224958 0.195927
0.483105 0.232833 0.203425
0.719978 0.240728 0.210926
0.941304 0.248633 0.218419
0.027037 0.478377 0.213655
0.269612 0.487501 0.221142
0.514262 0.496431 0.228605
0.752247 0.505155 0.236031
0.972262 0.513663 0.243411
0.052467 0.743503 0.238724
0.298002 0.752159 0.246084
0.543820 0.760403 0.253381
0.780552 0.768231 0.260607
0.996905 0.775639 0.267751
0.080439 0.989888 0.263218
0.326838 0.996497 0.270330
0.571432 0.998584 0.277350
0.804677 0.999416 0.284271
0.999875 0.999870 0.291089
0.007993 0.005226 0.385073
0.218176 0.004613 0.395182
0.454033 0.004042 0.405178
0.687871 0.003511 0.415047
0.908497 0.004082 0.424777
0.006447 0.219774 0.418607
0.244773 0.227629 0.428282
0.486312 0.235512 0.437799
0.723406 0.243412 0.447145
0.944699 0.251318 0.456308
0.029483 0.481497 0.450503
0.272447 0.490556 0.459596
0.517325 0.499417 0.468490
0.755289 0.508069 0.477174
0.975053 0.516502 0.485638
0.055180 0.746488 0.480281
0.300900 0.755005 0.488662
0.546701 0.763109 0.496811
0.783178 0.770794 0.504719
0.997408 0.778059 0.512381
0.083392 0.992196 0.507538
0.329759 0.997811 0.515109
0.574101 0.998911 0.522429
0.806881 0.999610 0.529498
0.999949 0.999947 0.536324
0.007668 0.005013 0.619806
0.220806 0.004414 0.632199
0.457339 0.003857 0.644295
0.691613 0.003340 0.656079
0.912408 0.006105 0.667537
0.008655 0.222438 0.660289
0.247522 0.230304 0.671625
0.489506 0.238194 0.682617
0.726797 0.246097 0.693253
0.948033 0.254002 0.703523
0.031957 0.484595 0.697035
0.275290 0.493588 0.707168
0.520371 0.502380 0.716921
0.758291 0.510958 0.726285
0.977783 0.519314 0.735252
0.057918 0.749426 0.729595
0.303801 0.757804 0.738417
0.549561 0.765766 0.746833
0.785762 0.773309 0.754843
0.997863 0.780430 0.762443
0.086368 0.994439 0.757657
0.332680 0.998231 0.765110
0.576748 0.999192 0.772158
0.809044 0.999763 0.778814
0.999989 0.999988 0.785097
0.007349 0.004805 0.850991
0.223449 0.004220 0.865018
0.460635 0.003677 0.878559
0.695321 0.003174 0.891601
0.916262 0.008149 0.904132
0.010888 0.225106 0.896223
0.250281 0.232981 0.908565
0.492687 0.240877 0.920380
0.730150 0.248782 0.931660
0.951308 0.256685 0.942396
0.034458 0.487671 0.935632
0.278141 0.496597 0.946168
0.523400 0.505317 0.956151
0.761251 0.513821 0.965577
0.980450 0.522099 0.974442
0.060682 0.752318 0.968869
0.306706 0.760554 0.977530
0.552401 0.768375 0.985630
0.788303 0.775774 0.993171
0.998270 0.782753 0.998150
0.089366 0.996616 0.995779
0.335602 0.998603 0.998562
0.579373 0.999427 0.999411
0.811167 0.999875 0.999872
1.000000 1.000000 1.000000
