apps/web/public/lut/talentum-archive.cube
# Talentum · Arquivo — LUT padrão de imagem do projeto
# Gerado por scripts/gerar-lut.mjs. Não editar à mão.
# Equivalentes na web: classe .lp-lut e filtro SVG #lut-talentum.
TITLE "Talentum Arquivo"
LUT_3D_SIZE 9
DOMAIN_MIN 0.0 0.0 0.0
DOMAIN_MAX 1.0 1.0 1.0
0.008667 0.005667 0.003333
0.097920 0.005341 0.003142
0.212953 0.005025 0.002956
0.329718 0.004720 0.002776
0.447392 0.004425 0.002603
0.564710 0.004141 0.002436
0.680288 0.003867 0.002275
0.792700 0.003603 0.002119
0.900509 0.003349 0.001970
0.007053 0.092543 0.002713
0.108968 0.095805 0.002542
0.225979 0.099101 0.002377
0.344551 0.102431 0.002217
0.463767 0.105795 0.002064
0.582326 0.109190 0.001917
0.698823 0.112615 0.001776
0.811821 0.116071 0.001641
0.919881 0.119554 0.001511
0.005619 0.214461 0.002161
0.120562 0.218370 0.002010
0.239308 0.222290 0.001865
0.359415 0.226219 0.001726
0.479885 0.230155 0.001593
0.599391 0.234098 0.001466
0.716513 0.238045 0.003648
0.829812 0.241996 0.006209
0.937851 0.245948 0.008810
0.013040 0.342881 0.001677
0.132701 0.347251 0.001546
0.252921 0.351603 0.002041
0.374277 0.355936 0.004575
0.495706 0.360249 0.007151
0.615859 0.364541 0.009767
0.733310 0.368809 0.012420
0.846622 0.373052 0.015110
0.954372 0.377269 0.017834
0.024618 0.475237 0.005509
0.145364 0.479853 0.008099
0.266786 0.484424 0.010729
0.389097 0.488947 0.013395
0.511183 0.493421 0.016098
0.631680 0.497844 0.018833
0.749164 0.502216 0.021601
0.862209 0.506535 0.024400
0.969409 0.510799 0.027227
0.036866 0.608723 0.014375
0.158521 0.613365 0.017090
0.280863 0.617932 0.019838
0.403831 0.622423 0.022617
0.526270 0.626838 0.025426
0.646809 0.631174 0.028263
0.764034 0.635430 0.031127
0.876535 0.639606 0.034017
0.982934 0.643701 0.036929
0.049781 0.740471 0.023636
0.172134 0.744918 0.026456
0.295110 0.749265 0.029303
0.418433 0.753509 0.032176
0.540919 0.757650 0.035074
0.661202 0.761687 0.037996
0.777882 0.765620 0.040938
0.889576 0.769448 0.043901
0.994935 0.773171 0.046882
0.063339 0.867641 0.033229
0.186159 0.871690 0.036135
0.309477 0.875615 0.039064
0.432854 0.879414 0.042015
0.555088 0.883088 0.044984
0.674823 0.886637 0.047972
0.790684 0.890062 0.050976
0.901319 0.893362 0.053996
0.998616 0.896538 0.057029
0.077508 0.987514 0.043093
0.200547 0.990986 0.046070
0.323918 0.994316 0.049064
0.447051 0.997504 0.052074
0.568740 0.998209 0.055099
0.687648 0.998744 0.058137
0.802432 0.999177 0.061187
0.911779 0.999513 0.064248
0.999765 0.999756 0.067318
0.008496 0.005555 0.063235
0.099012 0.005232 0.066119
0.214254 0.004920 0.069037
0.331214 0.004619 0.071987
0.449055 0.004328 0.074970
0.566512 0.004047 0.077982
0.682196 0.003776 0.081023
0.794680 0.003516 0.084092
0.902527 0.003265 0.087187
0.006900 0.093647 0.073070
0.110114 0.096920 0.076063
0.227311 0.100228 0.079086
0.346051 0.103570 0.082137
0.465406 0.106944 0.085216
0.584075 0.110350 0.088320
0.700648 0.113786 0.091449
0.813689 0.117251 0.094600
0.921760 0.120743 0.097773
0.005484 0.215787 0.083255
0.121763 0.219701 0.086343
0.240670 0.223624 0.089456
0.360916 0.227555 0.092593
0.481497 0.231494 0.095753
0.601082 0.235438 0.098934
0.718250 0.239386 0.102134
0.831563 0.243338 0.105352
0.939585 0.247291 0.108587
0.014179 0.344367 0.093741
0.133956 0.348731 0.096909
0.254310 0.353076 0.100096
0.375775 0.357403 0.103303
0.497285 0.361709 0.106528
0.617486 0.365993 0.109769
0.734954 0.370253 0.113025
0.848252 0.374487 0.116294
0.955958 0.378695 0.119575
0.025824 0.476809 0.104475
0.146670 0.481410 0.107706
0.268198 0.485965 0.110953
0.390589 0.490472 0.114214
0.512725 0.494929 0.117487
0.633240 0.499335 0.120772
0.750711 0.503689 0.124068
0.863713 0.507989 0.127372
0.970843 0.512234 0.130683
0.038140 0.610308 0.115404
0.159875 0.614924 0.118682
0.282295 0.619466 0.121971
0.405312 0.623931 0.125270
0.527769 0.628319 0.128576
0.648296 0.632628 0.131890
0.765479 0.636857 0.135209
0.877911 0.641006 0.138532
0.984215 0.645072 0.141857
0.051121 0.741993 0.126473
0.173532 0.746406 0.129782
0.296555 0.750718 0.133098
0.419897 0.754927 0.136418
0.542372 0.759033 0.139742
0.662613 0.763034 0.143068
0.779222 0.766932 0.146395
0.890820 0.770724 0.149722
0.996062 0.774411 0.153046
0.064743 0.869030 0.137628
0.187596 0.873037 0.140953
0.310932 0.876919 0.144279
0.434298 0.880676 0.147606
0.556490 0.884307 0.150932
0.676154 0.887814 0.154256
0.791918 0.891196 0.157577
0.902433 0.894454 0.160893
0.998780 0.897589 0.164203
0.078970 0.988709 0.148817
0.202018 0.992133 0.152143
0.325378 0.995415 0.155466
0.448471 0.997799 0.158785
0.570089 0.998402 0.162099
0.688898 0.998902 0.165407
0.803560 0.999302 0.168709
0.912766 0.999605 0.172002
0.999825 0.999818 0.175287
0.008326 0.005444 0.163544
0.100108 0.005125 0.167208
0.215558 0.004817 0.170887
0.332710 0.004519 0.174580
0.450717 0.004231 0.178285
0.568309 0.003954 0.182001
0.684096 0.003687 0.185727
0.796649 0.003430 0.189461
0.904531 0.003183 0.193201
0.006749 0.094755 0.175928
0.111265 0.098040 0.179637
0.228646 0.101359 0.183357
0.347551 0.104712 0.187085
0.467043 0.108097 0.190822
0.585817 0.111513 0.194564
0.702464 0.114959 0.198310
0.815546 0.118434 0.202059
0.923624 0.121936 0.205810
0.005351 0.217115 0.188445
0.122970 0.221032 0.192183
0.242035 0.224958 0.195927
0.362417 0.228892 0.199675
0.483105 0.232833 0.203425
0.602766 0.236778 0.207176
0.719978 0.240728 0.210926
0.833302 0.244680 0.214674
0.941304 0.248633 0.218419
0.015324 0.345851 0.201040
0.135216 0.350209 0.204790
0.255701 0.354548 0.208541
0.377274 0.358868 0.212291
0.498860 0.363166 0.216038
0.619107 0.367442 0.219781
0.736588 0.371694 0.223518
0.849869 0.375919 0.227249
0.957529 0.380118 0.230971
0.027037 0.478377 0.213655
0.147982 0.482962 0.217401
0.269612 0.487501 0.221142
0.392080 0.491991 0.224877
0.514262 0.496431 0.228605
0.634792 0.500819 0.232323
0.752247 0.505155 0.236031
0.865204 0.509437 0.239728
0.972262 0.513663 0.243411
0.039421 0.611884 0.226235
0.161234 0.616475 0.229960
0.283728 0.620991 0.233675
0.406792 0.625430 0.237379
0.529264 0.629791 0.241070
0.649775 0.634073 0.244748
0.766913 0.638275 0.248411
0.879273 0.642396 0.252058
0.985480 0.646435 0.255687
0.052467 0.743503 0.238724
0.174934 0.747882 0.242411
0.298002 0.752159 0.246084
0.421360 0.756333 0.249741
0.543820 0.760403 0.253381
0.664015 0.764370 0.257004
0.780552 0.768231 0.260607
0.892051 0.771988 0.264190
0.996905 0.775639 0.267751
0.066152 0.870405 0.251068
0.189036 0.874369 0.254702
0.312388 0.878209 0.258318
0.435740 0.881923 0.261914
0.557887 0.885512 0.265489
0.677477 0.888977 0.269042
0.793141 0.892317 0.272572
0.903533 0.895533 0.276079
0.998933 0.898626 0.279561
0.080439 0.989888 0.263218
0.203492 0.993264 0.266785
0.326838 0.996497 0.270330
0.449887 0.998016 0.273852
0.571432 0.998584 0.277350
0.690140 0.999049 0.280823
0.804677 0.999416 0.284271
0.913740 0.999687 0.287693
0.999875 0.999870 0.291089
0.008159 0.005335 0.271613
0.101210 0.005019 0.276003
0.216865 0.004714 0.280389
0.334206 0.004420 0.284769
0.452376 0.004136 0.289140
0.570101 0.003862 0.293502
0.685988 0.003598 0.297853
0.798607 0.003345 0.302190
0.906521 0.003101 0.306513
0.006600 0.095866 0.286361
0.112421 0.099163 0.290730
0.229984 0.102494 0.295087
0.349051 0.105858 0.299433
0.468677 0.109254 0.303766
0.587555 0.112680 0.308083
0.704272 0.116136 0.312384
0.817391 0.119620 0.316666
0.925474 0.123131 0.320929
0.005353 0.218444 0.301012
0.124182 0.222364 0.305339
0.243402 0.226293 0.309651
0.363918 0.230229 0.313945
0.484710 0.234172 0.318221
0.604444 0.238119 0.322476
0.721697 0.242070 0.326709
0.835029 0.246023 0.330918
0.943009 0.249976 0.335103
0.016476 0.347333 0.315504
0.136482 0.351684 0.319772
0.257095 0.356017 0.324019
0.378771 0.360330 0.328244
0.500432 0.364621 0.332445
0.620721 0.368889 0.336620
0.738213 0.373132 0.340768
0.851474 0.377348 0.344888
0.959084 0.381538 0.348977
0.028256 0.479939 0.329776
0.149298 0.484509 0.333968
0.271029 0.489031 0.338133
0.393570 0.493504 0.342271
0.515795 0.497927 0.346380
0.636337 0.502298 0.350459
0.753773 0.506616 0.354506
0.866682 0.510879 0.358519
0.973665 0.515086 0.362499
0.040708 0.613452 0.343771
0.162598 0.618017 0.347869
0.285162 0.622507 0.351936
0.408270 0.626920 0.355971
0.530754 0.631254 0.359972
0.651247 0.635509 0.363939
0.768337 0.639684 0.367869
0.880621 0.643777 0.371762
0.986730 0.647788 0.375617
0.053821 0.745001 0.357431
0.176340 0.749346 0.361420
0.299450 0.753588 0.365374
0.422821 0.757727 0.369291
0.545263 0.761762 0.373170
0.665410 0.765693 0.377010
0.781870 0.769519 0.380810
0.893269 0.773240 0.384570
0.997162 0.776855 0.388288
0.067568 0.871765 0.370707
0.190480 0.875687 0.374572
0.313845 0.879484 0.378398
0.437179 0.883156 0.382184
0.559279 0.886703 0.385928
0.678792 0.890125 0.389631
0.794353 0.893423 0.393290
0.904621 0.896597 0.396907
0.999075 0.899649 0.400480
0.081913 0.991050 0.383552
0.204969 0.994378 0.387281
0.328298 0.997563 0.390968
0.451301 0.998220 0.394612
0.572769 0.998753 0.398213
0.691374 0.999184 0.401769
0.805784 0.999518 0.405282
0.914702 0.999759 0.408751
0.999916 0.999913 0.412178
0.007993 0.005226 0.385073
0.102317 0.004915 0.390141
0.218176 0.004613 0.395182
0.335703 0.004322 0.400195
0.454033 0.004042 0.405178
0.571887 0.003771 0.410129
0.687871 0.003511 0.415047
0.800554 0.003261 0.419931
0.908497 0.004082 0.424777
0.006452 0.096982 0.402012
0.113584 0.100291 0.406984
0.231326 0.103633 0.411924
0.350551 0.107008 0.416829
0.470309 0.110414 0.421699
0.589286 0.113850 0.426532
0.706071 0.117316 0.431326
0.819225 0.120809 0.436079
0.927309 0.124329 0.440790
0.006447 0.219774 0.418607
0.125399 0.223697 0.423463
0.244773 0.227629 0.428282
0.365418 0.231568 0.433061
0.486312 0.235512 0.437799
0.606116 0.239461 0.442494
0.723406 0.243412 0.447145
0.836744 0.247365 0.451750
0.944699 0.251318 0.456308
0.017635 0.348812 0.434791
0.137753 0.353158 0.439513
0.258491 0.357484 0.444192
0.380268 0.361790 0.448827
0.502000 0.366073 0.453415
0.622328 0.370333 0.457955
0.739828 0.374567 0.462446
0.853066 0.378774 0.466886
0.960624 0.382954 0.471274
0.029483 0.481497 0.450503
0.150620 0.486050 0.455073
0.272447 0.490556 0.459596
0.395060 0.495012 0.464068
0.517325 0.499417 0.468490
0.637875 0.503770 0.472859
0.755289 0.508069 0.477174
0.868147 0.512314 0.481434
0.975053 0.516502 0.485638
0.042002 0.615011 0.465684
0.163966 0.619551 0.470087
0.286598 0.624014 0.474436
0.409746 0.628401 0.478731
0.532240 0.632708 0.482971
0.652712 0.636936 0.487154
0.769750 0.641083 0.491279
0.881957 0.645148 0.495345
0.987964 0.649131 0.499352
0.055180 0.746488 0.480281
0.177750 0.750798 0.484500
0.300900 0.755005 0.488662
0.424280 0.759109 0.492766
0.546701 0.763109 0.496811
0.666797 0.767004 0.500796
0.783178 0.770794 0.504719
0.894474 0.774479 0.508581
0.997408 0.778059 0.512381
0.068989 0.873111 0.494246
0.191928 0.876991 0.498269
0.315302 0.880745 0.502231
0.438616 0.884375 0.506133
0.560665 0.887879 0.509972
0.680099 0.891259 0.513749
0.795554 0.894514 0.517464
0.905695 0.897647 0.521115
0.999206 0.900658 0.524704
0.083392 0.992196 0.507538
0.206449 0.995475 0.511354
0.329759 0.997811 0.515109
0.452712 0.998413 0.518800
0.574101 0.998911 0.522429
0.692600 0.999308 0.525995
0.806881 0.999610 0.529498
0.915651 0.999821 0.532941
0.999949 0.999947 0.536324
0.007830 0.005119 0.501827
0.103429 0.004811 0.507512
0.219489 0.004513 0.513148
0.337200 0.004226 0.518734
0.455687 0.003949 0.524266
0.573668 0.003682 0.529744
0.689746 0.003425 0.535166
0.802489 0.003178 0.540529
0.910459 0.005091 0.545833
0.006307 0.098102 0.520754
0.114752 0.101422 0.526267
0.232670 0.104776 0.531724
0.352052 0.108161 0.537125
0.471937 0.111578 0.542467
0.591012 0.115024 0.547749
0.707861 0.118499 0.552968
0.821046 0.122002 0.558124
0.929130 0.125531 0.563215
0.007548 0.221106 0.539077
0.126622 0.225032 0.544397
0.246146 0.228966 0.549656
0.366919 0.232907 0.554853
0.487911 0.236853 0.559985
0.607781 0.240802 0.565052
0.725106 0.244755 0.570052
0.838447 0.248708 0.574982
0.946373 0.252660 0.579843
0.018801 0.350290 0.556729
0.139029 0.354630 0.561838
0.259890 0.358949 0.566880
0.381765 0.363247 0.571855
0.503564 0.367522 0.576760
0.623928 0.371773 0.581595
0.741433 0.375999 0.586357
0.854645 0.380197 0.591047
0.962149 0.384366 0.595662
0.030716 0.483048 0.573649
0.151946 0.487586 0.578528
0.273868 0.492075 0.583337
0.396548 0.496514 0.588073
0.518850 0.500901 0.592735
0.639406 0.505236 0.597323
0.756795 0.509517 0.601834
0.869600 0.513742 0.606268
0.976426 0.517911 0.610624
0.043303 0.616561 0.589779
0.165338 0.621075 0.594414
0.288036 0.625513 0.598974
0.411221 0.629872 0.603457
0.533721 0.634153 0.607863
0.654168 0.638354 0.612190
0.771153 0.642473 0.616437
0.883279 0.646510 0.620604
0.989182 0.650464 0.624690
0.056546 0.747963 0.605070
0.179165 0.752238 0.609447
0.302350 0.756410 0.613745
0.425737 0.760479 0.617963
0.548133 0.764443 0.622101
0.668176 0.768303 0.626157
0.784476 0.772058 0.630132
0.895665 0.775707 0.634024
0.997641 0.779251 0.637834
0.070417 0.874443 0.619479
0.193379 0.878280 0.623587
0.316760 0.881992 0.627614
0.440051 0.885579 0.631559
0.562045 0.889041 0.635421
0.681397 0.892378 0.639201
0.796745 0.895592 0.642898
0.906757 0.898683 0.646513
0.999326 0.901653 0.650047
0.084877 0.993326 0.632974
0.207932 0.996556 0.636807
0.331220 0.998027 0.640556
0.454120 0.998593 0.644224
0.575427 0.999057 0.647809
0.693818 0.999421 0.651314
0.807967 0.999692 0.654738
0.916589 0.999873 0.658085
0.999973 0.999972 0.661357
0.007668 0.005013 0.619806
0.104548 0.004709 0.626039
0.220806 0.004414 0.632199
0.338698 0.004131 0.638285
0.457339 0.003857 0.644295
0.575443 0.003593 0.650227
0.691613 0.003340 0.656079
0.804414 0.003134 0.661850
0.912408 0.006105 0.667537
0.006163 0.099226 0.640482
0.115925 0.102557 0.646464
0.234017 0.105922 0.652367
0.353552 0.109318 0.658189
0.473563 0.112745 0.663930
0.592731 0.116201 0.669587
0.709642 0.119686 0.675158
0.822856 0.123197 0.680642
0.930936 0.126735 0.686038
0.008655 0.222438 0.660289
0.127851 0.226367 0.665999
0.247522 0.230304 0.671625
0.368419 0.234246 0.677165
0.489506 0.238194 0.682617
0.609440 0.242144 0.687980
0.726797 0.246097 0.693253
0.840138 0.250050 0.698434
0.948033 0.254002 0.703523
0.019973 0.351766 0.679160
0.140310 0.356099 0.684580
0.261291 0.360411 0.689910
0.383261 0.364702 0.695150
0.505124 0.368969 0.700298
0.625522 0.373211 0.705352
0.743028 0.377428 0.710311
0.856212 0.381616 0.715174
0.963659 0.385776 0.719941
0.031957 0.484595 0.697035
0.153277 0.489116 0.702149
0.275290 0.493588 0.707168
0.398035 0.498010 0.712093
0.520371 0.502380 0.716921
0.640929 0.506696 0.721652
0.758291 0.510958 0.726285
0.871039 0.515165 0.730818
0.977783 0.519314 0.735252
0.044610 0.618102 0.713862
0.166715 0.622591 0.718655
0.289475 0.627002 0.723350
0.412694 0.631335 0.727947
0.535198 0.635589 0.732444
0.655617 0.639762 0.736841
0.772546 0.643853 0.741137
0.884589 0.647862 0.745331
0.990385 0.651788 0.749424
0.057918 0.749426 0.729595
0.180583 0.753667 0.734056
0.303801 0.757804 0.738417
0.427192 0.761837 0.742676
0.549561 0.765766 0.746833
0.669546 0.769590 0.750889
0.785762 0.773309 0.754843
0.896843 0.776922 0.758694
0.997863 0.780430 0.762443
0.071851 0.875760 0.744201
0.194834 0.879554 0.748322
0.318218 0.883224 0.752340
0.441483 0.886768 0.756257
0.563421 0.890188 0.760071
0.682687 0.893483 0.763783
0.797925 0.896655 0.767394
0.907806 0.899705 0.770905
0.999436 0.902634 0.774316
0.086368 0.994439 0.757657
0.209418 0.997596 0.761434
0.332680 0.998231 0.765110
0.455526 0.998762 0.768684
0.576748 0.999192 0.772158
0.695027 0.999524 0.775534
0.809044 0.999763 0.778814
0.917515 0.999915 0.782000
0.999989 0.999988 0.785097
0.007508 0.004909 0.736910
0.105671 0.004608 0.743610
0.222126 0.004317 0.750213
0.340196 0.004036 0.756718
0.458988 0.003766 0.763123
0.577213 0.003506 0.769427
0.693471 0.003256 0.775627
0.806327 0.004138 0.781723
0.914342 0.007125 0.787712
0.006021 0.100353 0.759061
0.117104 0.103696 0.765430
0.235368 0.107072 0.771696
0.355053 0.110478 0.777859
0.475186 0.113915 0.783916
0.594445 0.117381 0.789865
0.711415 0.120875 0.795706
0.824654 0.124396 0.801438
0.932728 0.127942 0.807057
0.009768 0.223771 0.780076
0.129085 0.227703 0.786094
0.248900 0.231642 0.792004
0.369919 0.235586 0.797806
0.491099 0.239535 0.803496
0.611093 0.243487 0.809075
0.728478 0.247440 0.814541
0.841816 0.251392 0.819892
0.949678 0.255344 0.825128
0.021153 0.353240 0.799890
0.141597 0.357566 0.805540
0.262695 0.361871 0.811078
0.384756 0.366153 0.816503
0.506681 0.370412 0.821812
0.627109 0.374646 0.827006
0.744614 0.378853 0.832082
0.857766 0.383032 0.837041
0.965153 0.387181 0.841882
0.033204 0.486135 0.818449
0.154613 0.490640 0.823716
0.276714 0.495095 0.828868
0.399521 0.499500 0.833902
0.521887 0.503852 0.838817
0.642445 0.508150 0.843614
0.759776 0.512393 0.848291
0.872465 0.516580 0.852848
0.979124 0.520710 0.857284
0.045924 0.619635 0.835705
0.168096 0.624098 0.840578
0.290916 0.628482 0.845331
0.414166 0.632789 0.849964
0.536670 0.637015 0.854477
0.657058 0.641160 0.858869
0.773927 0.645224 0.863140
0.885885 0.649205 0.867289
0.991573 0.653103 0.871316
0.059297 0.750878 0.851621
0.182005 0.755083 0.856090
0.305253 0.759185 0.860438
0.428645 0.763183 0.864664
0.550984 0.767076 0.868769
0.670909 0.770865 0.872752
0.787038 0.774548 0.876614
0.898008 0.778125 0.880355
0.998073 0.781598 0.883976
0.073291 0.877063 0.866173
0.196292 0.880815 0.870233
0.319677 0.884442 0.874172
0.442912 0.887944 0.877990
0.564791 0.891321 0.881687
0.683969 0.894574 0.885264
0.799094 0.897705 0.888723
0.908841 0.900713 0.892063
0.999535 0.903602 0.895289
0.087864 0.995535 0.879350
0.210907 0.997823 0.883003
0.334141 0.998423 0.886537
0.456928 0.998919 0.889952
0.578063 0.999315 0.893251
0.696229 0.999615 0.896435
0.810110 0.999824 0.899507
0.918430 0.999948 0.902473
0.999998 0.999997 0.905340
0.007349 0.004805 0.850991
0.106801 0.004508 0.858064
0.223449 0.004220 0.865018
0.341694 0.003944 0.871850
0.460635 0.003677 0.878559
0.578978 0.003420 0.885143
0.695321 0.003174 0.891601
0.808228 0.005147 0.897931
0.916262 0.008149 0.904132
0.005881 0.101485 0.874307
0.118289 0.104839 0.880970
0.236721 0.108225 0.887509
0.356554 0.111642 0.893920
0.476806 0.115089 0.900204
0.596153 0.118565 0.906357
0.713178 0.122068 0.912379
0.826440 0.125597 0.918269
0.934505 0.129151 0.924025
0.010888 0.225106 0.896223
0.130324 0.229040 0.902459
0.250281 0.232981 0.908565
0.371419 0.236927 0.914539
0.492687 0.240877 0.920380
0.612739 0.244829 0.926088
0.730150 0.248782 0.931660
0.843482 0.252735 0.937096
0.951308 0.256685 0.942396
0.022339 0.354711 0.916681
0.142888 0.359030 0.922474
0.264101 0.363328 0.928132
0.386251 0.367603 0.933655
0.508234 0.371853 0.939042
0.628689 0.376078 0.944291
0.746189 0.380276 0.949402
0.859307 0.384444 0.954375
0.966632 0.388583 0.959209
0.034458 0.487671 0.935632
0.155953 0.492159 0.940969
0.278141 0.496597 0.946168
0.401005 0.500984 0.951229
0.523400 0.505317 0.956151
0.643954 0.509597 0.960934
0.761251 0.513821 0.965577
0.873878 0.517989 0.970080
0.980450 0.522099 0.974442
0.047245 0.621159 0.953037
0.169482 0.625596 0.957909
0.292358 0.629954 0.962640
0.415636 0.634233 0.967232
0.538137 0.638432 0.971684
0.658492 0.642550 0.975995
0.775298 0.646585 0.980166
0.887168 0.650538 0.984197
0.992745 0.654407 0.988088
0.060682 0.752318 0.968869
0.183431 0.756488 0.973270
0.306706 0.760554 0.977530
0.430096 0.764517 0.981650
0.552401 0.768375 0.985630
0.672264 0.772127 0.989470
0.788303 0.775774 0.993171
0.899160 0.779316 0.996734
0.998270 0.782753 0.998150
0.074736 0.878351 0.983115
0.197753 0.882060 0.987044
0.321136 0.885645 0.990833
0.444339 0.889105 0.994484
0.566155 0.892440 0.997743
0.685243 0.895651 0.998363
0.800253 0.898740 0.998876
0.909865 0.901707 0.999286
0.999624 0.904556 0.999597
0.089366 0.996616 0.995779
0.212398 0.998039 0.997981
0.335602 0.998603 0.998562
0.458328 0.999065 0.999037
0.579373 0.999427 0.999411
0.697423 0.999696 0.999687
0.811167 0.999875 0.999872
0.919333 0.999973 0.999972
1.000000 1.000000 1.000000
